modules/themify-icons/icons/ticket.svg

<?xml version="1.0" encoding="utf-8"?>
<!-- Generated by IcoMoon.io -->
<!DOCTYPE svg PUBLIC "-//W3C//DTD SVG 1.1//EN" "http://www.w3.org/Graphics/SVG/1.1/DTD/svg11.dtd">
<svg version="1.1" xmlns="http://www.w3.org/2000/svg" xmlns:xlink="http://www.w3.org/1999/xlink" width="17" height="17" viewBox="0 0 17 17">
<g>
</g>
	<path d="M9.5 1v0.5c0 0.552-0.449 1-1 1s-1-0.448-1-1v-0.5h-3.5v15h3.5v-0.5c0-0.552 0.449-1 1-1s1 0.448 1 1v0.5h3.5v-15h-3.5zM6.563 2c0.223 0.861 1.007 1.5 1.937 1.5s1.714-0.639 1.937-1.5h1.563v6h-7v-6h1.563zM10.437 15c-0.222-0.861-1.006-1.5-1.937-1.5s-1.714 0.639-1.937 1.5h-1.563v-6h7v6h-1.563z" fill="#000000" />
</svg>

<svg xmlns="http://www.w3.org/2000/svg" width="17" height="17" viewBox="0 0 17 17"><path d="M9.5 1v.5a1.001 1.001 0 01-2 0V1H4v15h3.5v-.5a1.001 1.001 0 012 0v.5H13V1H9.5zM6.563 2c.223.861 1.007 1.5 1.937 1.5s1.714-.639 1.937-1.5H12v6H5V2h1.563zm3.874 13c-.222-.861-1.006-1.5-1.937-1.5s-1.714.639-1.937 1.5H5V9h7v6h-1.563z"/></svg>
